src/assets/2004.svg

<svg width="2810" height="2643" fill="none" xmlns="http://www.w3.org/2000/svg">
  <g filter="url(#filter0_d)">
    <path d="M1741.84 599.233c-47.57-47.382 90.32-149.188-71.76-195.183C1453.82 342.682 505.376.627 505.376.627L25.066 888.224s408.712 452.936 461.182 510.436c52.47 57.5 464.516 317.2 528.322 290.19 63.8-27 65.26-44.72 107.32-34.15 34.18 8.59-133.075 93.6-43.52 187.53 89.55 93.92 253.67 101.33 370.36 154.36 116.69 53.04-133.86 488.33 334.9 563.09 468.76 74.76 410.45-323.04 443.92-381.6 33.47-58.56 134.87 30.94 187.34 0 52.46-30.94 45.43-149.52 106.28-193.03 60.84-43.52 79.89-22.88 161.48-50.21 81.59-27.34 118.6-203.8 95.65-244.99-22.95-41.19-87.41-110.95-99.47-134.38-11.84-23.02-17.26-37.42-30.99-73.87l-.75-2.01c-14.29-37.93 17.69-75.41 50.26-142.82 32.56-67.4 92.28-145.67 6.35-221.48-85.94-75.82-205.24 24.51-256.61-50.77-51.36-75.278 7.8-128.317-106.34-176.296-114.14-47.979-332.64 103.337-379.21 67.83-46.58-35.506 22.19-121.368-10.09-167.116-32.27-45.747-162.04-142.322-209.61-189.705z" fill="#fff"/>
  </g>
  <defs>
    <filter id="filter0_d" x=".066" y=".627" width="2809.93" height="2642.37" filterUnits="userSpaceOnUse" color-interpolation-filters="sRGB">
      <feFlood flood-opacity="0" result="BackgroundImageFix"/>
      <feColorMatrix in="SourceAlpha" values="0 0 0 0 0 0 0 0 0 0 0 0 0 0 0 0 0 0 127 0"/>
      <feOffset dy="49"/>
      <feGaussianBlur stdDeviation="12.5"/>
      <feColorMatrix values="0 0 0 0 0 0 0 0 0 0 0 0 0 0 0 0 0 0 0.25 0"/>
      <feBlend in2="BackgroundImageFix" result="effect1_dropShadow"/>
      <feBlend in="SourceGraphic" in2="effect1_dropShadow" result="shape"/>
    </filter>
  </defs>
</svg>

<svg width="2810" height="2643" viewBox="0 0 2810 2643" fill="none" xmlns="http://www.w3.org/2000/svg">
<g filter="url(#filter0_d)">
<path d="M1741.84 599.233C1694.27 551.851 1832.16 450.045 1670.08 404.05C1453.82 342.682 505.376 0.626953 505.376 0.626953L25.0664 888.224C25.0664 888.224 433.778 1341.16 486.248 1398.66C538.718 1456.16 950.764 1715.86 1014.57 1688.85C1078.37 1661.85 1079.83 1644.13 1121.89 1654.7C1156.07 1663.29 988.815 1748.3 1078.37 1842.23C1167.92 1936.15 1332.04 1943.56 1448.73 1996.59C1565.42 2049.63 1314.87 2484.92 1783.63 2559.68C2252.39 2634.44 2194.08 2236.64 2227.55 2178.08C2261.02 2119.52 2362.42 2209.02 2414.89 2178.08C2467.35 2147.14 2460.32 2028.56 2521.17 1985.05C2582.01 1941.53 2601.06 1962.17 2682.65 1934.84C2764.24 1907.5 2801.25 1731.04 2778.3 1689.85C2755.35 1648.66 2690.89 1578.9 2678.83 1555.47C2666.99 1532.45 2661.57 1518.05 2647.84 1481.6L2647.09 1479.59C2632.8 1441.66 2664.78 1404.18 2697.35 1336.77C2729.91 1269.37 2789.63 1191.1 2703.7 1115.29C2617.76 1039.47 2498.46 1139.8 2447.09 1064.52C2395.73 989.242 2454.89 936.203 2340.75 888.224C2226.61 840.245 2008.11 991.561 1961.54 956.054C1914.96 920.548 1983.73 834.686 1951.45 788.938C1919.18 743.191 1789.41 646.616 1741.84 599.233Z" fill="white"/>
</g>
<defs>
<filter id="filter0_d" x="0.0664062" y="0.626953" width="2809.93" height="2642.37" filterUnits="userSpaceOnUse" color-interpolation-filters="sRGB">
<feFlood flood-opacity="0" result="BackgroundImageFix"/>
<feColorMatrix in="SourceAlpha" type="matrix" values="0 0 0 0 0 0 0 0 0 0 0 0 0 0 0 0 0 0 127 0"/>
<feOffset dy="49"/>
<feGaussianBlur stdDeviation="12.5"/>
<feColorMatrix type="matrix" values="0 0 0 0 0 0 0 0 0 0 0 0 0 0 0 0 0 0 0.25 0"/>
<feBlend mode="normal" in2="BackgroundImageFix" result="effect1_dropShadow"/>
<feBlend mode="normal" in="SourceGraphic" in2="effect1_dropShadow" result="shape"/>
</filter>
</defs>
</svg>
